X:230
T:The Drunken Landlady
R:reel
D:Mary Bergin: Feadoga Stain.
Z:id:hn-reel-66
M:C|
K:EDor
BE E2 BAFA|BE E2 BAFA|ABAF D2FD|FA A2 BAFA|
BE E2 BAFA|BE E2 BAFA|A2Bc dfec|dBAF E2FA:|
|:Beed e2de|f2df efdB|ABAF D2FD|FA A2 BAFA|
Beed e2de|f2df efdB|A2Bc dfec|dBAF E2AF:|
